icons/shield-arrow-left-outline.svg

<svg xmlns="http://www.w3.org/2000/svg" width="24" height="24" viewBox="0 0 24 24">
  <path d="M12,1 C15.5169906,1 18.3742467,1.71431401 20.5547002,3.16794971 C20.8328989,3.35341548 21,3.66564681 21,4 L21,4 L21,12.9096249 C20.9981658,16.3441397 19.0497159,19.5919666 16.0272136,21.1044272 L16.0272136,21.1044272 L12.4472136,22.8944272 C12.1656861,23.0351909 11.8343139,23.0351909 11.5527864,22.8944272 L11.5527864,22.8944272 L7.97250014,21.104284 C4.95028406,19.5919666 3.00183418,16.3441397 3,12.9090909 L3,12.9090909 L3,4 C3,3.66564681 3.16710114,3.35341548 3.4452998,3.16794971 C5.62575334,1.71431401 8.48300939,1 12,1 Z M11.9999999,3 C9.15029309,3 6.85199016,3.50672557 5.09245014,4.5016552 L5.09245014,4.5016552 L4.99999986,4.555 L4.99999986,12.9085569 C5.00138724,15.5066311 6.43129904,17.976644 8.636365,19.1941391 L8.636365,19.1941391 L8.8672136,19.3155728 L11.9999999,20.881 L15.1325001,19.315716 C17.3905248,18.1858001 18.8956579,15.7647258 18.9947875,13.1773026 L18.9947875,13.1773026 L18.9999999,12.9090909 L18.9999999,4.556 L18.9075499,4.5016552 C17.2406172,3.55909028 15.0901411,3.0546919 12.4453733,3.00420832 L12.4453733,3.00420832 Z M11.3871006,8.20970461 C11.7793918,7.90467972 12.3466228,7.93240926 12.7071068,8.29289322 C13.0976311,8.68341751 13.0976311,9.31658249 12.7071068,9.70710678 L12.7071068,9.70710678 L11.415,11 L15,11 L15.1166211,11.0067277 C15.6139598,11.0644928 16,11.4871642 16,12 C16,12.5522847 15.5522847,13 15,13 L15,13 L11.415,13 L12.7071068,14.2928932 L12.7902954,14.3871006 C13.0953203,14.7793918 13.0675907,15.3466228 12.7071068,15.7071068 C12.3165825,16.0976311 11.6834175,16.0976311 11.2928932,15.7071068 L11.2928932,15.7071068 L8.29289322,12.7071068 L8.21968877,12.625449 C8.2173721,12.6225624 8.21507113,12.6196628 8.20970461,12.6128994 C8.20517454,12.6070733 8.20071786,12.6012086 8.19631351,12.5951593 C8.17849009,12.5711307 8.1617187,12.546275 8.14599545,12.5207088 C8.13860692,12.5086131 8.13149883,12.4963944 8.12487577,12.484277 C8.11379392,12.4642939 8.10337664,12.4438914 8.09367336,12.4232215 L8.09367336,12.4232215 L8.07110396,12.3710585 C8.06331574,12.3515792 8.05612249,12.3317977 8.04973809,12.3121425 C8.04472872,12.2968513 8.04009773,12.2814633 8.03572097,12.2658396 C8.02983363,12.2444365 8.0246398,12.2227461 8.02024007,12.2007258 C8.01670217,12.1833753 8.01362808,12.165949 8.01101934,12.1489612 L8.01101934,12.1489612 L8.003,12.081 L8.002,12.059 L8.00278786,12.0752385 L8.00278786,12.0752385 L8.0017331,12.0590314 L8.001,12.037 L8,12 L8.00018018,11.980824 L8.0017331,11.9409686 C8.00232561,11.9308872 8.00307004,11.9208131 8.00399798,11.909968 L8.00399798,11.909968 L8.0110178,11.8515331 C8.01362808,11.834051 8.01670217,11.8166247 8.02016515,11.7992059 C8.0246398,11.7772539 8.02983363,11.7555635 8.03584514,11.734007 C8.04009773,11.7185367 8.04472872,11.7031487 8.04954668,11.6882636 C8.05612249,11.6682023 8.06331574,11.6484208 8.07122549,11.628664 L8.07122549,11.628664 L8.09365378,11.5769009 C8.10337664,11.5561086 8.11379392,11.5357061 8.12467117,11.5159379 L8.12467117,11.5159379 L8.14606743,11.4793398 C8.1617187,11.453725 8.17849009,11.4288693 8.19633458,11.4046934 L8.19633458,11.4046934 L8.22,11.374 L8.216,11.378 L8.21968877,11.374551 L8.232,11.359 L8.24220802,11.347434 L8.24220802,11.347434 L8.29289322,11.2928932 L11.2928932,8.29289322 Z"/>
</svg>

<svg xmlns="http://www.w3.org/2000/svg" viewBox="0 0 24 24">
  <path d="M12 1c3.52 0 6.37.71 8.55 2.17A1 1 0 0 1 21 4v8.91a9.23 9.23 0 0 1-4.97 8.2l-3.58 1.78a1 1 0 0 1-.9 0L7.97 21.1A9.23 9.23 0 0 1 3 12.9V4a1 1 0 0 1 .45-.83C5.63 1.7 8.48 1 12 1zm0 2c-2.85 0-5.15.5-6.9 1.5l-.1.05v8.36c0 2.6 1.43 5.07 3.64 6.28l.23.13L12 20.88l3.13-1.56A7.22 7.22 0 0 0 19 13.18l.01-.27V4.56l-.1-.06c-1.66-.94-3.81-1.45-6.45-1.5zm-.61 5.21a1 1 0 0 1 1.32 1.5L11.4 11h3.71a1 1 0 0 1-.12 2H11.4l1.3 1.3.08.09a1 1 0 0 1-1.5 1.32l-3-3-.07-.08a3.01 3.01 0 0 1-.1-.15 1.02 1.02 0 0 1-.03-.06l-.02-.05a.95.95 0 0 1-.06-.22v-.09.02-.17l.01-.06a1.1 1.1 0 0 1 .06-.22l.02-.05.03-.06.03-.04.05-.08.02-.03.01-.01.01-.01.05-.06 3-3z"/>
</svg>
